X:30
T:Miss Hay's Reel
C:R. Petrie
S:Petrie's Second Collection of Strathspey Reels and Country Dances &c.
Z:Steve Wyrick , 6/5/04
N:Petrie's Second Collection, page 10
L:1/8
M:C|
R:Reel
K:Gm
(DGGc) (B/c/d) (cB)|AFcF dFcF|(DGGc)  d=efd      |cAfA G/G/G G2:|
(Ggga) (g/a/b) (ag)|fcac fcac|(dgga) (g/a/b) (ag)|fdcA G/G/G G2 |
(Ggga) (g/a/b) (ag)|fcfg agfa| gafg   dfcf       |AFcA G/G/G G2|]
